assets/vapor/mono.svg

<svg viewBox="0 0 24 24" xmlns="http://www.w3.org/2000/svg"><path d="m22.75 13.908v1.56l-10.75 8.532-10.75-8.532v-1.56l10.75 8.532zm-10.75 3.359-10.75-8.443 10.75-8.824 10.75 8.824zm.356-4.635a3.193 3.193 0 0 0 3.193-3.193 3.185 3.185 0 0 0 -3.029-3.176l.001-.016-4.514-.427 1.205 4.102a3.184 3.184 0 0 0 3.144 2.71zm-.356 7.637-10.75-8.532v1.533l10.75 8.532 10.75-8.532v-1.533zm0-2.366-10.75-8.443v1.64l10.75 8.53 10.75-8.532v-1.638z"/></svg>

<svg xmlns="http://www.w3.org/2000/svg" viewBox="0 0 24 24"><path d="M22.75 13.908v1.56L12 24 1.25 15.468v-1.56L12 22.44zM12 17.267 1.25 8.824 12 0l10.75 8.824zm.356-4.635a3.193 3.193 0 0 0 3.193-3.193 3.185 3.185 0 0 0-3.029-3.176l.001-.016-4.514-.427 1.205 4.102a3.184 3.184 0 0 0 3.144 2.71M12 20.269 1.25 11.737v1.533L12 21.802l10.75-8.532v-1.533zm0-2.366L1.25 9.46v1.64L12 19.63l10.75-8.532V9.46z"/></svg>
